X: 3851
T: Black Nag, The
R: jig
M: 6/8
K: Bminor
|:BAB cBc|dcd ede|fed cBc|B3 B3:|
|:cAF cAF|cdc cde|fdB fdB|fgf fed|
cAF c2c|cdc cde|fed cBc|B3 B3:|

